X:1
T:Holy Sacrifice
T:Holy Sacrifice
T:Scott Werdebaugh
T:Scott Werdebaugh, 2017
T:© 2017 Scott Werdebaugh. Reproduce or publish freely for Christian worship or devotions. Courtesy of the Cyber Hymnal™
C:Scott Werdebaugh
Z:© 2017 Scott Werdebaugh. Reproduce or publish freely for Christian worship or devotions.
Z:Courtesy of the Cyber Hymnal™
%%score 1 2
L:1/8
Q:1/4=120
M:4/4
K:Ab
V:1 treble 
V:2 bass 
V:1
"^In quiet reflective introspection" [EA]4 [Ac]2 [GB]2 | [EA]4 [Ec]4 | [GB]2 [GB]2 [FA]2 [EB]2 | %3
w: 1.~See! where in|shame the|God of glo- ry|
w: 2.~Th’All Ho- ly,|as a|min- i- ster of|
w: 3.~Pale grows His|face, and|fix’d His lan- guid|
w: 4.~O heart more|hard than|i- ron! not to|
w: 5.~Praise, hon- our,|glo- ry|be through end- less|
 [Ec]6 z2 | [Ec]4 [Ac]2 [GB]2 | [Fd]4 [Ec]4 | [GB]6 z2 | [EA]4 [Ac]2 [GB]2 | [EA]4 [Ec]4 | %9
w: hangs,|All bathed in|His own|blood:|See! how those|nails pierce|
w: ill,|Be- twixt two|thieves they|place;|Oh, deed un-|just! yet|
w: eye;|His wear- ied|head He|bends;|And rich in|mer- its,|
w: weep|At this; thy|sin it|was|That wrought His|death; of|
w: time|To th’ev- er-|last- ing|God;|Who wash’d a-|way our|
 [GB]2 [GB]2 [FA]2 [EB]2 | [Ec]6 z2 | [EA]4 [GB]2 [DG]2 | !fermata![CA]6 z2 |] %13
w: with a thou- sand|pangs|Those hands so|good.|
w: such the cru- el|will|Of Is- rael’s|race.|
w: forth with one loud|cry|His Spir- it|sends.|
w: all these tor- ments|deep|Thou art the|cause.|
w: dead- ly stain of|crime|In His own|blood.|
V:2
 [A,C]4 [A,E]2 [E,B,]2 | [A,C]4 [A,,A,]4 | [E,G,]2 [E,G,]2 [D,A,]2 [E,G,]2 | [A,,A,]6 z2 | %4
 [A,,A,]4 [E,A,]2 [E,G,]2 | [D,A,]4 [A,,A,]4 | [E,G,]6 z2 | [A,C]4 [A,E]2 [E,B,]2 | %8
 [A,C]4 [A,,A,]4 | [E,G,]2 [E,G,]2 [D,A,]2 [E,G,]2 | [A,,A,]6 z2 | [A,C]4 [E,B,]2 [E,G,]2 | %12
 !fermata![A,,E,]6 z2 |] %13

